X: 144
T:Wild Rover
M:3/4
R:waltz
Q:1/4=180
L:1/8
Z:added by Alf warnock alf0@rogers.com - www.alfwarnock.info/alfs
K:C
c2|"C"c3d c2|"G7"B2 G2 e2|"C"ed3 e2|"F"f6|f4 g2|"C"g2 e2 g2|"G7"fd3 B2|Ge3 d2|"C"c6-|
c4 c2|c2 d3c|"G7"B2 G2 e2|"C"e2 d2 e2|"F"f6|f4 g2|"C"ge3 g2|"G7"fd3 BB|G2 e2 d2|
"C"c2 B2 c2|"G7"d6|d6|BG3 G2|G2 A2 B2|"C"c2 e2 e2|ed3 e2|"F"f6-|f2 e2 f2|
"C"g6|g3e c2|"F"B2 A4|A4 A2|"G7"Ge3 e2|e4 d2|"C"c6-|c6|]

